X:1
T:Clog du vieillard
T:Old man's clog, The
T:Fred Wilson's Clog
M:C|
L:1/8
R:Clog or Hornpipe
S:Mélodiens Campagnards
D:Victor 263713 (78 RPM), Mélodiens Campagnards (1930)
F: http://amicus.collectionscanada.gc.ca/gramophone-bin/Main/ItemDisplay?l=0&l_ef_l=-1&id=64714.375785&v=1&lvl=1&coll=24&rt=1&itm=31392587&rsn=S_WWWloaYv1PZA&all=1&dt=AW+%7Cvieillard%7C&spi=-&rp=1&v=1
Z:Transcribed by Andrew Kuntz
K:D
DFAF GABG|FAde fdAF|G2 gf edcd|edcB AGFE|
DFAF GABG|FAde fdAF|G2 ed cABc|1d2f2d2d2:|2d2f2d2||
cd|eAAA fAAA|gAfA eAAA|[M:9/8]fAAA gAfA e2df|[M:6/8]edcB AGFE|
DFAF GABG|FAde fdAF|G2 ed cABc|d2f2d2d2||

